X: 27830
T: Moth In The Lantern, The
R: jig
M: 6/8
K: Bminor
|:FBd ~f4|FBd ~e4|FBd ~f4|~e3 ~f4|FBd ~f3|FBd ~e4|fed e2fg|fdc ~B4:|
|:FBd ~c4|dcd ~e4|FBd ~c4|dcB ~=c2BG|FBd ~c4|dcd ~e4|fed e2fg|fdc ~B3:|
fBBd BBB|eAAc AAA|fBBd BBB|efge fg2|fBB d~B3|eAA c~A3|fed e2fg|fdc B3d:|

